img/icon/twitter.svg

<svg width="42" height="41" viewBox="0 0 42 41" fill="none" xmlns="http://www.w3.org/2000/svg">
<g clip-path="url(#clip0)">
<rect opacity="0.1" y="0.404175" width="42" height="40" rx="20" fill="#5A7184"/>
<path d="M27.677 17.4875C28.302 17.0188 28.8645 16.4563 29.302 15.8C28.7395 16.05 28.0833 16.2375 27.427 16.3C28.1145 15.8938 28.6145 15.2688 28.8645 14.4875C28.2395 14.8625 27.5208 15.1438 26.802 15.3C26.177 14.6438 25.3333 14.2688 24.3958 14.2688C22.5833 14.2688 21.1145 15.7375 21.1145 17.55C21.1145 17.8 21.1458 18.05 21.2083 18.3C18.4895 18.1438 16.052 16.8313 14.427 14.8625C14.1458 15.3313 13.9895 15.8938 13.9895 16.5188C13.9895 17.6438 14.552 18.6438 15.4583 19.2375C14.927 19.2063 14.3958 19.0813 13.9583 18.8313V18.8625C13.9583 20.4563 15.0833 21.7688 16.5833 22.0813C16.3333 22.1438 16.0208 22.2063 15.7395 22.2063C15.5208 22.2063 15.3333 22.175 15.1145 22.1438C15.5208 23.4563 16.7395 24.3938 18.177 24.425C17.052 25.3 15.6458 25.8313 14.1145 25.8313C13.8333 25.8313 13.5833 25.8 13.3333 25.7688C14.7708 26.7063 16.4895 27.2375 18.3645 27.2375C24.3958 27.2375 27.677 22.2688 27.677 17.925C27.677 17.7688 27.677 17.6438 27.677 17.4875Z" fill="#5A7184"/>
</g>
<defs>
<clipPath id="clip0">
<rect width="42" height="40.0599" fill="white" transform="translate(0 0.404175)"/>
</clipPath>
</defs>
</svg>

<svg xmlns="http://www.w3.org/2000/svg" fill="none" viewBox="0 0 42 41"><g fill="#5A7184" clip-path="url(#clip0)"><rect width="42" height="40" y=".404" opacity=".1" rx="20"/><path d="M27.677 17.488a6.948 6.948 0 0 0 1.625-1.688 6.15 6.15 0 0 1-1.875.5 3.206 3.206 0 0 0 1.438-1.813 6.928 6.928 0 0 1-2.063.813 3.281 3.281 0 0 0-2.406-1.031 3.28 3.28 0 0 0-3.282 3.281c0 .25.032.5.094.75a9.52 9.52 0 0 1-6.781-3.438 3.193 3.193 0 0 0-.438 1.657c0 1.125.563 2.125 1.47 2.719-.532-.032-1.063-.157-1.5-.407v.032a3.285 3.285 0 0 0 2.624 3.218c-.25.063-.562.125-.843.125-.22 0-.407-.031-.626-.062a3.265 3.265 0 0 0 3.063 2.281 6.597 6.597 0 0 1-4.063 1.406c-.28 0-.53-.031-.78-.062 1.437.937 3.155 1.469 5.03 1.469 6.032 0 9.313-4.97 9.313-9.313v-.438z"/></g><defs><clipPath id="clip0"><path fill="#fff" d="M0 0h42v40.06H0z" transform="translate(0 .404)"/></clipPath></defs></svg>
